dist/img/svg/telegram.svg

<svg width="21" height="21" viewBox="0 0 21 21" fill="none" xmlns="http://www.w3.org/2000/svg">
<g clip-path="url(#clip0_651_2515)">
<path d="M17.6396 4.52307L15.3045 15.7782C15.1283 16.5726 14.6689 16.7702 14.016 16.3961L10.4581 13.7164L8.7414 15.404C8.55144 15.5982 8.3925 15.7606 8.02638 15.7606L8.28196 12.0571L14.8762 5.96701C15.1629 5.70579 14.814 5.56101 14.4305 5.82227L6.27852 11.0685L2.76898 9.94586C2.00559 9.70224 1.9918 9.1656 2.92786 8.7914L16.6551 3.38628C17.2906 3.14269 17.8468 3.53098 17.6396 4.52307Z" fill="currentColor"/>
</g>
<defs>
<clipPath id="clip0_651_2515">
<rect width="15.4737" height="13.2632" fill="currentColor" transform="translate(2.21045 3.31579)"/>
</clipPath>
</defs>
</svg>

<svg width="21" height="21" viewBox="0 0 21 21" fill="none" xmlns="http://www.w3.org/2000/svg"><g clip-path="url(#clip0_651_2515)"><path d="M17.64 4.523l-2.335 11.255c-.177.795-.636.992-1.289.618l-3.558-2.68-1.717 1.688c-.19.194-.348.357-.715.357l.256-3.704 6.594-6.09c.287-.261-.062-.406-.445-.145L6.279 11.07l-3.51-1.123c-.763-.244-.777-.78.159-1.155l13.727-5.405c.636-.243 1.192.145.985 1.137z" fill="currentColor"/></g><defs><clipPath id="clip0_651_2515"><path fill="currentColor" transform="translate(2.21 3.316)" d="M0 0h15.474v13.263H0z"/></clipPath></defs></svg>
